X:46
T:Hommage  Dorothe (Ph. Bruneau)
C:Y. Dour: Accordeons diatoniques
M:3/4
L:1/8
K:C
AA/A/ AB cA|Be Ee Ee|AA/A/ AB cA|Be Ee Ee|\
AA/A/ AB cA|Be GB df|
E6e6|1ef ed cB:|2 E4e4A2||\
dd/d/ de fd|ea Aa Aa|dd/d/ de fd|ea Aa Aa|\
dd/d/ de fd|
eg ce gc'|A6a6|1 ac' ag fe:|2 A2a2 G2g2 F2f2|\
E3e3 Gg G2-g2-|G2g2 F2f2 E2e2|\
D3d3 Ff F2-f2-|F2f2 e2d2|B6|B2a2f2|E6e6|ef ed cB||
"Coda" AA/A/ AB cA|Be Ee Ee|AA/A/ AB cA|Be Ee Ee|\
AA/A/ AB cA|Be ed cB|(3ABA EA ce|a6||
